src/assets/logo-document.svg

<svg fill="none" height="350" viewBox="0 0 829 350" width="829" xmlns="http://www.w3.org/2000/svg" xmlns:xlink="http://www.w3.org/1999/xlink"><clipPath id="a"><path d="m0 0h828.04v349.92h-828.04z"/></clipPath><g clip-path="url(#a)"><path d="m0 0h828.04v349.92h-828.04z" fill="#fff"/><g fill="#fed766"><path d="m21.73 111.75 17.4-30.14 17.41 30.14z"/><path d="m21.73 167.07 17.4-30.14 17.41 30.14z"/><path d="m21.73 222.39 17.4-30.14 17.41 30.14z"/><path d="m293.39 111.75 17.4-30.14 17.41 30.14z"/><path d="m293.39 167.07 17.4-30.14 17.41 30.14z"/><path d="m293.39 222.39 17.4-30.14 17.41 30.14z"/><path d="m239.06 56.44 17.4-30.15 17.41 30.15z"/><path d="m239.06 111.75 17.4-30.14 17.41 30.14z"/><path d="m239.06 167.07 17.4-30.14 17.41 30.14z"/><path d="m239.06 222.39 17.4-30.14 17.41 30.14z"/><path d="m239.06 277.71 17.4-30.14 17.41 30.14z"/><path d="m184.72 56.44 17.41-30.15 17.4 30.15z"/><path d="m184.72 111.75 17.41-30.14 17.4 30.14z"/><path d="m184.72 167.07 17.41-30.14 17.4 30.14z"/><path d="m184.72 222.39 17.41-30.14 17.4 30.14z"/><path d="m184.72 277.71 17.41-30.14 17.4 30.14z"/><path d="m184.72 333.03 17.41-30.14 17.4 30.14z"/><path d="m130.39 56.44 17.41-30.15 17.4 30.15z"/><path d="m130.39 111.75 17.41-30.14 17.4 30.14z"/><path d="m130.39 167.07 17.41-30.14 17.4 30.14z"/><path d="m130.39 222.39 17.41-30.14 17.4 30.14z"/><path d="m130.39 277.71 17.41-30.14 17.4 30.14z"/><path d="m130.39 333.03 17.41-30.14 17.4 30.14z"/><path d="m76.06 56.44 17.4-30.15 17.41 30.15z"/><path d="m76.06 111.75 17.4-30.14 17.41 30.14z"/><path d="m76.06 167.07 17.4-30.14 17.41 30.14z"/><path d="m76.06 222.39 17.4-30.14 17.41 30.14z"/><path d="m76.06 277.71 17.4-30.14 17.41 30.14z"/><path d="m174.96 0c-96.63 0-174.96 78.33-174.96 174.96s78.33 174.96 174.96 174.96 174.96-78.33 174.96-174.96-78.33-174.96-174.96-174.96zm0 325.72c-83.26 0-150.76-67.5-150.76-150.76s67.5-150.76 150.76-150.76 150.76 67.5 150.76 150.76c0 83.27-67.49 150.76-150.76 150.76z"/></g><path d="m99.34 211.43c4.82 5.99 11.31 8.99 19.46 8.99s14.61-2.99 19.37-8.99c4.76-5.99 7.14-14.18 7.14-24.56v-54.17l28.92-17.37v72.47c0 18.78-5.19 33.21-15.57 43.28s-23.66 15.11-39.85 15.11-29.5-5.07-39.94-15.2c-10.45-10.14-15.67-24.53-15.67-43.19v-55.1l28.91-17.37v71.54c0 10.38 2.41 18.57 7.23 24.56z" fill="#16d2aa"/><path d="m273.1 126.91c9.08 7.72 13.62 19.59 13.62 35.59s-4.66 27.71-13.99 35.12c-9.33 7.42-23.57 11.12-42.72 11.12h-17.24v18.77l-28.91 17.37v-129.55h45.78c19.89 0 34.38 3.86 43.46 11.58zm-21.22 50.97c3.46-3.89 5.19-9.57 5.19-17.05 0-7.47-2.26-12.79-6.77-15.94s-11.52-4.73-21.04-4.73h-16.5v43.56h19.46c9.65 0 16.2-1.95 19.66-5.84z" fill="#16d2aa"/><path d="m449.47 177-17.37 6.95c-3.01-11-9.79-16.51-20.33-16.51-7.76 0-13.79 2.67-18.07 7.99-4.29 5.33-6.43 12.86-6.43 22.59s2.14 17.2 6.43 22.41c4.28 5.21 10.31 7.82 18.07 7.82 5.9 0 10.65-1.45 14.24-4.34 3.6-2.89 5.97-7.06 7.13-12.51l17.03 5.73c-2.55 8.11-7.06 14.45-13.56 19.02-6.48 4.58-14.65 6.86-24.49 6.86-13.67 0-24.35-4-32.05-11.99-7.71-7.99-11.56-19.05-11.56-33.18s3.82-25.19 11.47-33.18 18.24-11.99 31.79-11.99c18.99.01 31.56 8.12 37.7 24.33z" fill="#16d2aa"/><path d="m528.26 161.02c6.07 5.56 9.12 13.55 9.12 23.97v56.29h-18.58v-50.38c0-15.29-6.2-22.93-18.6-22.93-6.49 0-12.05 2.26-16.68 6.78s-6.95 11.41-6.95 20.68v45.87h-18.58v-125.98h18.58v52.99c2.9-5.32 6.75-9.26 11.55-11.81 4.81-2.54 10.34-3.82 16.59-3.82 9.62 0 17.47 2.78 23.55 8.34z" fill="#16d2aa"/><path d="m549.72 136.78c-2.21-2.02-3.3-4.89-3.3-8.6s1.1-6.54 3.3-8.51 5.27-2.95 9.21-2.95 6.98.98 9.12 2.95 3.22 4.81 3.22 8.51c0 3.71-1.07 6.57-3.22 8.6-2.14 2.03-5.19 3.04-9.12 3.04-3.94 0-7.02-1.01-9.21-3.04zm18.41 104.5h-18.58v-86.87h18.58z" fill="#16d2aa"/><path d="m662.29 204.8h-63.58c1.04 7.64 3.76 13.46 8.17 17.46 4.4 4 10.08 5.99 17.02 5.99 5.68 0 10.39-1.01 14.16-3.04 3.76-2.02 6.34-4.95 7.73-8.77l15.46 6.43c-6.49 13.44-18.94 20.15-37.35 20.15-13.66 0-24.35-4-32.06-11.99-7.7-7.99-11.55-19.05-11.55-33.18 0-14.25 3.7-25.34 11.12-33.27 7.41-7.93 17.83-11.9 31.27-11.9 12.74 0 22.64 3.88 29.71 11.64 7.06 7.76 10.6 18.07 10.6 30.92 0 3.36-.23 6.55-.7 9.56zm-55.86-31.45c-4.11 3.94-6.68 9.67-7.73 17.2h46.91c-.93-7.3-3.39-12.97-7.39-17.03-3.99-4.05-9.18-6.08-15.55-6.08-6.71.01-12.12 1.98-16.24 5.91z" fill="#16d2aa"/><path d="m748.99 154.42-34.58 86.87h-20.33l-34.75-86.87h20.5l24.5 71.75 25.19-71.75z" fill="#16d2aa"/><path d="m827.34 204.8h-63.58c1.05 7.64 3.76 13.46 8.17 17.46 4.4 4 10.08 5.99 17.03 5.99 5.67 0 10.39-1.01 14.16-3.04 3.76-2.02 6.33-4.95 7.73-8.77l15.46 6.43c-6.49 13.44-18.93 20.15-37.35 20.15-13.67 0-24.35-4-32.06-11.99-7.7-7.99-11.55-19.05-11.55-33.18 0-14.25 3.7-25.34 11.12-33.27 7.41-7.93 17.83-11.9 31.27-11.9 12.74 0 22.64 3.88 29.71 11.64 7.06 7.76 10.6 18.07 10.6 30.92-.01 3.36-.24 6.55-.71 9.56zm-55.85-31.45c-4.11 3.94-6.68 9.67-7.73 17.2h46.91c-.93-7.3-3.39-12.97-7.39-17.03-3.99-4.05-9.18-6.08-15.55-6.08-6.72.01-12.13 1.98-16.24 5.91z" fill="#16d2aa"/></g></svg>

<svg width="829" height="350" viewBox="0 0 829 350" fill="none" xmlns="http://www.w3.org/2000/svg">
<g clip-path="url(#clip0_432_11515)">
<rect width="828.04" height="349.92" fill="white"/>
<path d="M21.73 111.75L39.13 81.61L56.54 111.75H21.73Z" fill="#FED766"/>
<path d="M21.73 167.07L39.13 136.93L56.54 167.07H21.73Z" fill="#FED766"/>
<path d="M21.73 222.39L39.13 192.25L56.54 222.39H21.73Z" fill="#FED766"/>
<path d="M293.39 111.75L310.79 81.61L328.2 111.75H293.39Z" fill="#FED766"/>
<path d="M293.39 167.07L310.79 136.93L328.2 167.07H293.39Z" fill="#FED766"/>
<path d="M293.39 222.39L310.79 192.25L328.2 222.39H293.39Z" fill="#FED766"/>
<path d="M239.06 56.44L256.46 26.29L273.87 56.44H239.06Z" fill="#FED766"/>
<path d="M239.06 111.75L256.46 81.61L273.87 111.75H239.06Z" fill="#FED766"/>
<path d="M239.06 167.07L256.46 136.93L273.87 167.07H239.06Z" fill="#FED766"/>
<path d="M239.06 222.39L256.46 192.25L273.87 222.39H239.06Z" fill="#FED766"/>
<path d="M239.06 277.71L256.46 247.57L273.87 277.71H239.06Z" fill="#FED766"/>
<path d="M184.72 56.44L202.13 26.29L219.53 56.44H184.72Z" fill="#FED766"/>
<path d="M184.72 111.75L202.13 81.61L219.53 111.75H184.72Z" fill="#FED766"/>
<path d="M184.72 167.07L202.13 136.93L219.53 167.07H184.72Z" fill="#FED766"/>
<path d="M184.72 222.39L202.13 192.25L219.53 222.39H184.72Z" fill="#FED766"/>
<path d="M184.72 277.71L202.13 247.57L219.53 277.71H184.72Z" fill="#FED766"/>
<path d="M184.72 333.03L202.13 302.89L219.53 333.03H184.72Z" fill="#FED766"/>
<path d="M130.39 56.44L147.8 26.29L165.2 56.44H130.39Z" fill="#FED766"/>
<path d="M130.39 111.75L147.8 81.61L165.2 111.75H130.39Z" fill="#FED766"/>
<path d="M130.39 167.07L147.8 136.93L165.2 167.07H130.39Z" fill="#FED766"/>
<path d="M130.39 222.39L147.8 192.25L165.2 222.39H130.39Z" fill="#FED766"/>
<path d="M130.39 277.71L147.8 247.57L165.2 277.71H130.39Z" fill="#FED766"/>
<path d="M130.39 333.03L147.8 302.89L165.2 333.03H130.39Z" fill="#FED766"/>
<path d="M76.06 56.44L93.46 26.29L110.87 56.44H76.06Z" fill="#FED766"/>
<path d="M76.06 111.75L93.46 81.61L110.87 111.75H76.06Z" fill="#FED766"/>
<path d="M76.06 167.07L93.46 136.93L110.87 167.07H76.06Z" fill="#FED766"/>
<path d="M76.06 222.39L93.46 192.25L110.87 222.39H76.06Z" fill="#FED766"/>
<path d="M76.06 277.71L93.46 247.57L110.87 277.71H76.06Z" fill="#FED766"/>
<path d="M174.96 0C78.33 0 0 78.33 0 174.96C0 271.59 78.33 349.92 174.96 349.92C271.59 349.92 349.92 271.59 349.92 174.96C349.92 78.33 271.59 0 174.96 0ZM174.96 325.72C91.7 325.72 24.2 258.22 24.2 174.96C24.2 91.7 91.7 24.2 174.96 24.2C258.22 24.2 325.72 91.7 325.72 174.96C325.72 258.23 258.23 325.72 174.96 325.72Z" fill="#FED766"/>
<path d="M99.34 211.43C104.16 217.42 110.65 220.42 118.8 220.42C126.95 220.42 133.41 217.43 138.17 211.43C142.93 205.44 145.31 197.25 145.31 186.87V132.7L174.23 115.33V187.8C174.23 206.58 169.04 221.01 158.66 231.08C148.28 241.15 135 246.19 118.81 246.19C102.62 246.19 89.31 241.12 78.87 230.99C68.42 220.85 63.2 206.46 63.2 187.8V132.7L92.11 115.33V186.87C92.11 197.25 94.52 205.44 99.34 211.43Z" fill="#16D2AA"/>
<path d="M273.1 126.91C282.18 134.63 286.72 146.5 286.72 162.5C286.72 178.5 282.06 190.21 272.73 197.62C263.4 205.04 249.16 208.74 230.01 208.74H212.77V227.51L183.86 244.88V115.33H229.64C249.53 115.33 264.02 119.19 273.1 126.91ZM251.88 177.88C255.34 173.99 257.07 168.31 257.07 160.83C257.07 153.36 254.81 148.04 250.3 144.89C245.79 141.74 238.78 140.16 229.26 140.16H212.76V183.72H232.22C241.87 183.72 248.42 181.77 251.88 177.88Z" fill="#16D2AA"/>
<path d="M449.47 177L432.1 183.95C429.09 172.95 422.31 167.44 411.77 167.44C404.01 167.44 397.98 170.11 393.7 175.43C389.41 180.76 387.27 188.29 387.27 198.02C387.27 207.75 389.41 215.22 393.7 220.43C397.98 225.64 404.01 228.25 411.77 228.25C417.67 228.25 422.42 226.8 426.01 223.91C429.61 221.02 431.98 216.85 433.14 211.4L450.17 217.13C447.62 225.24 443.11 231.58 436.61 236.15C430.13 240.73 421.96 243.01 412.12 243.01C398.45 243.01 387.77 239.01 380.07 231.02C372.36 223.03 368.51 211.97 368.51 197.84C368.51 183.71 372.33 172.65 379.98 164.66C387.63 156.67 398.22 152.67 411.77 152.67C430.76 152.68 443.33 160.79 449.47 177Z" fill="#16D2AA"/>
<path d="M528.26 161.02C534.33 166.58 537.38 174.57 537.38 184.99V241.28H518.8V190.9C518.8 175.61 512.6 167.97 500.2 167.97C493.71 167.97 488.15 170.23 483.52 174.75C478.89 179.27 476.57 186.16 476.57 195.43V241.3H457.99V115.32H476.57V168.31C479.47 162.99 483.32 159.05 488.12 156.5C492.93 153.96 498.46 152.68 504.71 152.68C514.33 152.68 522.18 155.46 528.26 161.02Z" fill="#16D2AA"/>
<path d="M549.72 136.78C547.51 134.76 546.42 131.89 546.42 128.18C546.42 124.47 547.52 121.64 549.72 119.67C551.92 117.7 554.99 116.72 558.93 116.72C562.87 116.72 565.91 117.7 568.05 119.67C570.19 121.64 571.27 124.48 571.27 128.18C571.27 131.89 570.2 134.75 568.05 136.78C565.91 138.81 562.86 139.82 558.93 139.82C554.99 139.82 551.91 138.81 549.72 136.78ZM568.13 241.28H549.55V154.41H568.13V241.28Z" fill="#16D2AA"/>
<path d="M662.29 204.8H598.71C599.75 212.44 602.47 218.26 606.88 222.26C611.28 226.26 616.96 228.25 623.9 228.25C629.58 228.25 634.29 227.24 638.06 225.21C641.82 223.19 644.4 220.26 645.79 216.44L661.25 222.87C654.76 236.31 642.31 243.02 623.9 243.02C610.24 243.02 599.55 239.02 591.84 231.03C584.14 223.04 580.29 211.98 580.29 197.85C580.29 183.6 583.99 172.51 591.41 164.58C598.82 156.65 609.24 152.68 622.68 152.68C635.42 152.68 645.32 156.56 652.39 164.32C659.45 172.08 662.99 182.39 662.99 195.24C662.99 198.6 662.76 201.79 662.29 204.8ZM606.43 173.35C602.32 177.29 599.75 183.02 598.7 190.55H645.61C644.68 183.25 642.22 177.58 638.22 173.52C634.23 169.47 629.04 167.44 622.67 167.44C615.96 167.45 610.55 169.42 606.43 173.35Z" fill="#16D2AA"/>
<path d="M748.99 154.42L714.41 241.29H694.08L659.33 154.42H679.83L704.33 226.17L729.52 154.42H748.99Z" fill="#16D2AA"/>
<path d="M827.34 204.8H763.76C764.81 212.44 767.52 218.26 771.93 222.26C776.33 226.26 782.01 228.25 788.96 228.25C794.63 228.25 799.35 227.24 803.12 225.21C806.88 223.19 809.45 220.26 810.85 216.44L826.31 222.87C819.82 236.31 807.38 243.02 788.96 243.02C775.29 243.02 764.61 239.02 756.9 231.03C749.2 223.04 745.35 211.98 745.35 197.85C745.35 183.6 749.05 172.51 756.47 164.58C763.88 156.65 774.3 152.68 787.74 152.68C800.48 152.68 810.38 156.56 817.45 164.32C824.51 172.08 828.05 182.39 828.05 195.24C828.04 198.6 827.81 201.79 827.34 204.8ZM771.49 173.35C767.38 177.29 764.81 183.02 763.76 190.55H810.67C809.74 183.25 807.28 177.58 803.28 173.52C799.29 169.47 794.1 167.44 787.73 167.44C781.01 167.45 775.6 169.42 771.49 173.35Z" fill="#16D2AA"/>
</g>
<defs>
<clipPath id="clip0_432_11515">
<rect width="828.04" height="349.92" fill="white"/>
</clipPath>
</defs>
</svg>
